icons/1_Primary/Plutus.svg

<svg width="1024" height="1024" fill="none" xmlns="http://www.w3.org/2000/svg"><g clip-path="url(#a)"><path d="M512 1024c282.77 0 512-229.23 512-512S794.77 0 512 0 0 229.23 0 512s229.23 512 512 512Z" fill="#F8C18C"/><path d="M727 533.55c-4 7.91-18.92 12.47-32.16 14.31 15.64 10.46 30.82 28.59 29.75 56.07-.84 21.56-17.07 39-32.75 55.82-21 22.58-33.34 37.32-21.77 55L656.26 724c-19.38-29.67 3.42-54.13 23.53-75.72 13.61-14.6 27.68-29.7 28.26-45 1.2-30.62-24.67-43.85-34.77-47.86-10.79 16.41-31.68 32.74-72.09 34.24v.16c-1.05 0-2-.06-3-.09s-2 .09-3 .09v-.16c-14.4-.52-26.32-2.94-36.17-6.58-6.34 4.78-13.82 12-15.49 19.83-1 4.79.27 9.51 4 14.4 3.73 4.89 7.38 9.4 11 13.8 17.11 21 34.81 42.68 15.5 67.06-6.22 7.84-13.32 12.83-19.6 17.24-13.55 9.58-22.54 15.89-18.54 47l-16.45 2.16c-5.32-41.2 10.35-52.22 25.5-62.89 5.86-4.13 11.41-8 16.1-14 10-12.61 4.09-22.1-15.35-46a444.912 444.912 0 0 1-11.33-14.26c-6.67-8.8-9.11-18.56-7-28.18 2.19-10 8.77-18.3 15.39-24.4-30.56-20.11-31.11-53.6-31.11-54.07h16.61c0 1.55.8 28.78 29.27 43.3l2.06 1c9.61 4.5 22.26 7.52 38.72 7.86 68.6-1.44 70-50.1 70-52.2h16.61a58.545 58.545 0 0 1-1.65 11.45c7.93-.29 22.71-3 28.09-6-3.06-11.06-22.69-47.49-40.73-77.62l5-12.43 1.91-.53c-2.86-13-8.48-39.15-11.28-56.41-63.56-9.61-109.25-2.19-136.07 22.22-25.87 23.62-24.31 54.89-24.25 56.23l-9.21.59-7.35.61c-.37-4.3-3.34-8.83-6.95-10.53-3.28-1.54-7.06-.8-11.24 2.18-6.48 4.62-8.79 10.46-7.26 18.43 2.65 13.95 16.48 29.27 27.13 35.83 1.62-1 2.79-1.64 3.27-1.91l2.41 4.61c.34.11.73 1.37.73 1.37l.74 1.43 3.9 7.39a64.663 64.663 0 0 0-8 5.29s-.83 1-1.11.87c-5.92 4.73-12.27 11.39-13.8 18.53-1 4.79.27 9.49 4 14.4s7.37 9.38 11 13.78c17.11 21 34.8 42.71 15.51 67.09-6.22 7.83-13.33 12.83-19.59 17.24-13.58 9.57-22.55 15.88-18.54 47L455.11 704c-5.32-41.18 10.35-52.22 25.48-62.87 5.85-4.15 11.4-8 16.12-14 10-12.64 4.09-22.11-15.35-46-3.68-4.52-7.5-9.2-11.33-14.27-6.69-8.81-9.1-18.57-7-28.19 2.06-9.44 8-17.32 14.23-23.3-13.45-10.15-26.53-27.16-29.61-43.32-2.76-14.35 2.22-26.89 14-35.3 9.14-6.5 19-7.8 27.82-3.66.905.436 1.78.93 2.62 1.48a90.727 90.727 0 0 1 26.72-45.38c30.51-28 80.66-37 149-26.61 15.3-19.61 21.92-48.72-4.37-73.37-24.14-22.54-66.37-29.21-95.32-1.21l-13.86-4.31c-4.89-23.34-32.1-34.94-55.94-38-36-4.63-83.11 7.13-101.22 43.94-24.08 48.82 6.88 73.48 8.21 74.52l-5.44 15.05c-35.64-2-59.6 3.93-71.23 17.53-15 17.58-8.92 47.71-4 71.93 4.11 20.27 7.37 36.28-.68 45.79-9.15 10.82-20.11 14.73-30.19 14.73a40.583 40.583 0 0 1-18.19-4.34c-14.18-7.18-22-21.15-19.11-33.94l16.19 3.77c-1.17 5.06 3.3 11.61 10.42 15.2 3.75 1.93 16.92 7.12 28.25-6.29 2.78-3.28-.67-20.31-3-31.57-5.65-27.8-12.67-62.41 7.7-86.22 13-15.14 34.67-23 66.05-23.67-9.73-15.53-18.35-42.5.1-79.95 21.75-44.11 76.5-58.47 118.21-53.1 31.58 4.06 55.55 18.5 65.78 38.83 35.21-25.32 81.29-16.42 108.52 9.08 21.6 20.23 35.94 56.92 7.06 94.85 3 21.11 13.47 67.59 13.58 68.07l-5.37 9C733 521.88 729 529.69 727 533.55ZM437.35 378c6.53 8.79 16.21 13.7 25.83 13.7a27.578 27.578 0 0 0 11-2.27c14.93-6.47 18.77-12.17 28-25.91a580.21 580.21 0 0 1 21.3-29.73c7.67-10 15.88-15.23 24.39-15.59 14.09-.61 25.78 11.93 25.88 12.05L586.08 319c-.67-.77-16.84-18.34-38.73-17.52-13.68.56-26.13 8-36.94 22.12a549.154 549.154 0 0 0-21.92 30.54c-8.83 13-10.39 15.41-20.89 19.94-6.17 2.67-13.18-1-16.92-6.07-2.29-3.11-6.78-11.31 1.05-20.84l-12.79-10.69C428.58 349 428 365.36 437.35 378Zm171.53 294.7c-3.71-4.92-5-9.61-4-14.4 2.45-11.45 17.36-21.68 22.88-24.66L620 618.85c-2.72 1.45-26.75 14.82-31.32 35.87-2.07 9.61.34 19.36 7 28.17 3.68 4.833 7.457 9.59 11.33 14.27 19.42 23.87 25.33 33.36 15.35 46-4.73 6-10.27 9.85-16.12 14-15.14 10.68-30.8 21.69-25.51 62.9l16.48-2.17c-4-31.13 5-37.44 18.54-47 6.27-4.42 13.37-9.42 19.56-17.26 19.32-24.36 1.62-46.08-15.47-67.07-3.59-4.44-7.3-9.01-10.96-13.84v-.02ZM449.24 403.63c-74.25-2.79-91.72 24.14-93.29 47.21-.69 10.31.1 21.62 1 33.58 1.83 25.34 3.72 51.54-9.53 64.86-8.21 8.28-22 11.56-42.32 10.05L303.85 576c3.53.26 6.95.38 10.2.38 20.09 0 34.9-5 45.08-15.29 18.62-18.72 16.35-50.19 14.36-77.93-.82-11.38-1.58-22.11-.95-31.21 1.54-22.83 27.12-33.46 76.1-31.61l.6-16.71Zm201.41 45.23 6.65-4.13 6.74-4c-.4-.7-10.36-17.17-36.23-17.17-24.23 0-53.16 23.67-54.38 24.69l9.92 12.22c7.11-5.89 28.95-21.13 44.46-21.13 16.59-.03 22.59 9.12 22.85 9.52h-.01Zm-27.38 15.35c0 5.44 5 9.84 11.06 9.84 6.06 0 11.09-4.41 11.09-9.84s-5-9.85-11.09-9.85-11.05 4.42-11.05 9.86l-.01-.01Z" fill="#fff"/></g><defs><clipPath id="a"><path fill="#fff" d="M0 0h1024v1024H0z"/></clipPath></defs></svg>

<svg width="1024" height="1024" viewBox="0 0 1024 1024" fill="none" xmlns="http://www.w3.org/2000/svg">
<g clip-path="url(#clip0_2_3171)">
<path d="M512 1024C794.77 1024 1024 794.77 1024 512C1024 229.23 794.77 0 512 0C229.23 0 0 229.23 0 512C0 794.77 229.23 1024 512 1024Z" fill="#F8C18C"/>
<path d="M727 533.55C723 541.46 708.08 546.02 694.84 547.86C710.48 558.32 725.66 576.45 724.59 603.93C723.75 625.49 707.52 642.93 691.84 659.75C670.84 682.33 658.5 697.07 670.07 714.75L656.26 724C636.88 694.33 659.68 669.87 679.79 648.28C693.4 633.68 707.47 618.58 708.05 603.28C709.25 572.66 683.38 559.43 673.28 555.42C662.49 571.83 641.6 588.16 601.19 589.66V589.82C600.14 589.82 599.19 589.76 598.19 589.73C597.19 589.7 596.19 589.82 595.19 589.82V589.66C580.79 589.14 568.87 586.72 559.02 583.08C552.68 587.86 545.2 595.08 543.53 602.91C542.53 607.7 543.8 612.42 547.53 617.31C551.26 622.2 554.91 626.71 558.53 631.11C575.64 652.11 593.34 673.79 574.03 698.17C567.81 706.01 560.71 711 554.43 715.41C540.88 724.99 531.89 731.3 535.89 762.41L519.44 764.57C514.12 723.37 529.79 712.35 544.94 701.68C550.8 697.55 556.35 693.68 561.04 687.68C571.04 675.07 565.13 665.58 545.69 641.68C541.823 637.013 538.047 632.26 534.36 627.42C527.69 618.62 525.25 608.86 527.36 599.24C529.55 589.24 536.13 580.94 542.75 574.84C512.19 554.73 511.64 521.24 511.64 520.77H528.25C528.25 522.32 529.05 549.55 557.52 564.07L559.58 565.07C569.19 569.57 581.84 572.59 598.3 572.93C666.9 571.49 668.3 522.83 668.3 520.73H684.91C684.739 524.592 684.187 528.427 683.26 532.18C691.19 531.89 705.97 529.18 711.35 526.18C708.29 515.12 688.66 478.69 670.62 448.56L675.62 436.13L677.53 435.6C674.67 422.6 669.05 396.45 666.25 379.19C602.69 369.58 557 377 530.18 401.41C504.31 425.03 505.87 456.3 505.93 457.64L496.72 458.23L489.37 458.84C489 454.54 486.03 450.01 482.42 448.31C479.14 446.77 475.36 447.51 471.18 450.49C464.7 455.11 462.39 460.95 463.92 468.92C466.57 482.87 480.4 498.19 491.05 504.75C492.67 503.75 493.84 503.11 494.32 502.84L496.73 507.45C497.07 507.56 497.46 508.82 497.46 508.82L498.2 510.25L502.1 517.64C499.306 519.203 496.632 520.971 494.1 522.93C494.1 522.93 493.27 523.93 492.99 523.8C487.07 528.53 480.72 535.19 479.19 542.33C478.19 547.12 479.46 551.82 483.19 556.73C486.92 561.64 490.56 566.11 494.19 570.51C511.3 591.51 528.99 613.22 509.7 637.6C503.48 645.43 496.37 650.43 490.11 654.84C476.53 664.41 467.56 670.72 471.57 701.84L455.11 704C449.79 662.82 465.46 651.78 480.59 641.13C486.44 636.98 491.99 633.13 496.71 627.13C506.71 614.49 500.8 605.02 481.36 581.13C477.68 576.61 473.86 571.93 470.03 566.86C463.34 558.05 460.93 548.29 463.03 538.67C465.09 529.23 471.03 521.35 477.26 515.37C463.81 505.22 450.73 488.21 447.65 472.05C444.89 457.7 449.87 445.16 461.65 436.75C470.79 430.25 480.65 428.95 489.47 433.09C490.375 433.526 491.25 434.02 492.09 434.57C496.314 417.134 505.613 401.342 518.81 389.19C549.32 361.19 599.47 352.19 667.81 362.58C683.11 342.97 689.73 313.86 663.44 289.21C639.3 266.67 597.07 260 568.12 288L554.26 283.69C549.37 260.35 522.16 248.75 498.32 245.69C462.32 241.06 415.21 252.82 397.1 289.63C373.02 338.45 403.98 363.11 405.31 364.15L399.87 379.2C364.23 377.2 340.27 383.13 328.64 396.73C313.64 414.31 319.72 444.44 324.64 468.66C328.75 488.93 332.01 504.94 323.96 514.45C314.81 525.27 303.85 529.18 293.77 529.18C287.451 529.169 281.223 527.683 275.58 524.84C261.4 517.66 253.58 503.69 256.47 490.9L272.66 494.67C271.49 499.73 275.96 506.28 283.08 509.87C286.83 511.8 300 516.99 311.33 503.58C314.11 500.3 310.66 483.27 308.33 472.01C302.68 444.21 295.66 409.6 316.03 385.79C329.03 370.65 350.7 362.79 382.08 362.12C372.35 346.59 363.73 319.62 382.18 282.17C403.93 238.06 458.68 223.7 500.39 229.07C531.97 233.13 555.94 247.57 566.17 267.9C601.38 242.58 647.46 251.48 674.69 276.98C696.29 297.21 710.63 333.9 681.75 371.83C684.75 392.94 695.22 439.42 695.33 439.9L689.96 448.9C733 521.88 729 529.69 727 533.55ZM437.35 378C443.88 386.79 453.56 391.7 463.18 391.7C466.964 391.706 470.708 390.933 474.18 389.43C489.11 382.96 492.95 377.26 502.18 363.52C508.967 353.387 516.067 343.477 523.48 333.79C531.15 323.79 539.36 318.56 547.87 318.2C561.96 317.59 573.65 330.13 573.75 330.25L586.08 319C585.41 318.23 569.24 300.66 547.35 301.48C533.67 302.04 521.22 309.48 510.41 323.6C502.757 333.527 495.45 343.707 488.49 354.14C479.66 367.14 478.1 369.55 467.6 374.08C461.43 376.75 454.42 373.08 450.68 368.01C448.39 364.9 443.9 356.7 451.73 347.17L438.94 336.48C428.58 349 428 365.36 437.35 378ZM608.88 672.7C605.17 667.78 603.88 663.09 604.88 658.3C607.33 646.85 622.24 636.62 627.76 633.64L620 618.85C617.28 620.3 593.25 633.67 588.68 654.72C586.61 664.33 589.02 674.08 595.68 682.89C599.36 687.723 603.137 692.48 607.01 697.16C626.43 721.03 632.34 730.52 622.36 743.16C617.63 749.16 612.09 753.01 606.24 757.16C591.1 767.84 575.44 778.85 580.73 820.06L597.21 817.89C593.21 786.76 602.21 780.45 615.75 770.89C622.02 766.47 629.12 761.47 635.31 753.63C654.63 729.27 636.93 707.55 619.84 686.56C616.25 682.12 612.54 677.55 608.88 672.72V672.7ZM449.24 403.63C374.99 400.84 357.52 427.77 355.95 450.84C355.26 461.15 356.05 472.46 356.95 484.42C358.78 509.76 360.67 535.96 347.42 549.28C339.21 557.56 325.42 560.84 305.1 559.33L303.85 576C307.38 576.26 310.8 576.38 314.05 576.38C334.14 576.38 348.95 571.38 359.13 561.09C377.75 542.37 375.48 510.9 373.49 483.16C372.67 471.78 371.91 461.05 372.54 451.95C374.08 429.12 399.66 418.49 448.64 420.34L449.24 403.63ZM650.65 448.86L657.3 444.73L664.04 440.73C663.64 440.03 653.68 423.56 627.81 423.56C603.58 423.56 574.65 447.23 573.43 448.25L583.35 460.47C590.46 454.58 612.3 439.34 627.81 439.34C644.4 439.31 650.4 448.46 650.66 448.86H650.65ZM623.27 464.21C623.27 469.65 628.27 474.05 634.33 474.05C640.39 474.05 645.42 469.64 645.42 464.21C645.42 458.78 640.42 454.36 634.33 454.36C628.24 454.36 623.28 458.78 623.28 464.22L623.27 464.21Z" fill="white"/>
</g>
<defs>
<clipPath id="clip0_2_3171">
<rect width="1024" height="1024" fill="white"/>
</clipPath>
</defs>
</svg>
